icons/haxl.svg

<?xml version="1.0" encoding="UTF-8" standalone="no"?>
<svg width="256px" height="325px" viewBox="0 0 256 325" version="1.1" xmlns="http://www.w3.org/2000/svg" xmlns:xlink="http://www.w3.org/1999/xlink" preserveAspectRatio="xMidYMid">
    <g>
        <path d="M149.3338,0.0002 L119.4668,59.7342 L145.0668,110.9332 L200.5328,0.0002 L149.3338,0.0002 Z M204.7998,25.6002 L153.5998,128.0002 L179.2008,179.2002 L255.9998,25.6002 L204.7998,25.6002 Z M17.0668,25.6002 L34.1328,59.7342 L51.1998,59.7342 L170.6668,298.6672 L238.9338,298.6672 L221.8668,264.5332 L204.7998,264.5332 L85.3328,25.6002 L17.0668,25.6002 Z M0.0008,298.6672 L51.1998,298.6672 L102.3998,196.2672 L76.7998,145.0662 L0.0008,298.6672 Z M55.4668,324.2662 L106.6668,324.2662 L136.5328,264.5332 L110.9338,213.3332 L55.4668,324.2662 Z" fill="#4E69A2"></path>
    </g>
</svg>

<svg xmlns="http://www.w3.org/2000/svg" viewBox="0 0 255.999 324.266">
  <path fill="#4e69a2" d="m149.333 0-29.867 59.734 25.6 51.199L200.532 0zm55.466 25.6-51.2 102.4 25.601 51.2 76.799-153.6zm-187.733 0 17.066 34.134h17.067l119.467 238.933h68.267l-17.067-34.134h-17.067L85.332 25.6zM0 298.667h51.199l51.2-102.4-25.6-51.201zm55.466 25.599h51.2l29.866-59.733-25.599-51.2z"/>
</svg>
